icons/package-17.svg

<svg width="16" height="17" viewBox="0 0 16 17" fill="none" xmlns="http://www.w3.org/2000/svg">
<path fill-rule="evenodd" clip-rule="evenodd" d="M11.6337 5.40925L8.00004 3.31117L4.36713 5.40849L8.0008 7.50657L11.6337 5.40925ZM3.79549 6.39991V10.5945L7.42839 12.6919V8.49798L3.79549 6.39991ZM8.57321 12.6911L12.2046 10.5945V6.40143L8.57321 8.49798V12.6911ZM7.42763 2.31976C7.60166 2.21928 7.79908 2.16638 8.00004 2.16638C8.201 2.16638 8.39841 2.21928 8.57245 2.31976L12.7778 4.74678C12.9519 4.84732 13.0965 4.99196 13.197 5.16614C13.2975 5.34031 13.3503 5.53788 13.3502 5.73896V10.5945C13.3502 10.7955 13.2973 10.9929 13.1968 11.1669C13.0963 11.341 12.9518 11.4855 12.7778 11.586L8.57245 14.013C8.39841 14.1135 8.201 14.1664 8.00004 14.1664C7.79908 14.1664 7.60166 14.1135 7.42763 14.013L3.22231 11.586C3.04817 11.4854 2.90358 11.3408 2.8031 11.1666C2.70261 10.9924 2.64977 10.7949 2.6499 10.5938V5.73972C2.64977 5.53864 2.70261 5.34107 2.8031 5.1669C2.90358 4.99272 3.04817 4.84808 3.22231 4.74755L7.42839 2.32052L7.42763 2.31976Z" fill="#272431"/>
</svg>

<svg xmlns="http://www.w3.org/2000/svg" width="16" height="17" viewBox="0 0 16 17"><path fill-rule="evenodd" d="M11.634 5.41L8 3.31 4.367 5.408l3.634 2.099 3.633-2.098zm-7.839.99v4.194l3.633 2.098V8.498L3.795 6.4zm4.778 6.291l3.632-2.097V6.402L8.573 8.498v4.193zM7.428 2.32a1.145 1.145 0 011.144 0l4.206 2.427a1.145 1.145 0 01.572.992v4.856a1.144 1.144 0 01-.572.991l-4.206 2.427a1.145 1.145 0 01-1.144 0l-4.206-2.427a1.145 1.145 0 01-.572-.992V5.74a1.145 1.145 0 01.572-.992L7.428 2.32z"/></svg>
